X:1
T:Donna piu vaghi mai
T:Luca Marenzio
T:Source : Il terzo libro delle Villanelle a tre voci---Venetia---G.Vincenzi---1587. Editor : André Vierendeels (19/05/17).
T:Notes : Original clefs : G2, C1, F3
T:Donna piu vaghi mai
T:©
T:©
C:Luca Marenzio
Z:©
%%score [ 1 2 3 ]
L:1/8
Q:1/4=120
M:4/4
K:C
V:1 treble nm="Soprano 1" snm="S 1"
V:2 treble nm="Soprano 2" snm="S 2"
V:3 treble-8 nm="Tenor" snm="T"
V:1
"^1)" d4 d4 | z2 d2 d2 d2 | g4 e2 g2 | f2 e2 d2 c2 | d6 e2 | f2 f2 e4 | d8 :: z2 d2 e4 | d2 d4 d2 | %9
w: Don- na|piu va- ghi|ma- i, non|vi- d'il ciel de|tuoi ce-|le- sti ra-|i,|ne'il mon-|do'un sol piu|
w: Ben si|ral- le- gra'il|mon- do, di|te che già m'im-|pres- se'al|cor pro- fon-|do,|A- mor|con il so-|
 B4 B4 | c2 cB c2 d2 | e4 d2 c2- | c2 B2 A4 | G8 :| %14
w: chia- ro,|vi- de gli'oc- chi tuo-|i che mi|_ le- ga-|ro.|
w: stra- le,|quan- do pria vi- di|tua bel- tà'm-|* mor- ta-|le.|
V:2
"^2)""^1)" z4 B4 | B4 z2 B2 | B2 B2 c4 | c2 G2 G2 A2 | B3 A B2 ^c2 | d2 d2 ^c4 | d8 :: z2 B2 c4 | %8
w: Don-|na piu|va- ghi ma-|i, non vi- d'il|ciel de tuoi ce-|le- sti ra-|i,|ne'il mon-|
w: Il|Ciel, la|Ter- ra'il Ma-|re, ren- don so-|a- vi tue bel-|lez- ze ra-|re,|me sol|
 B2 B4 A2 | ^G4 G4 | A2 AG A2 B2 | c4 B2 A2- | A2 G2 ^F4 | G8 :| %14
w: do'un sol piu|chia- ro,|vi- de gli'oc- chi tuo-|i, che mi|_ le- ga-|ro.|
w: LA- VI- NIA'c-|cen- di,|sè dolci par- li ohi-|me, è dol-|* ce ri-|di.|
V:3
"^1)""^3)""^4)" z4 G4 | G4 z2 G2 | G2 G2 c4 | A2 c2 B2 A2 | G3 F G2 E2 | D2 D2 A4 | D8 :: G4 C4 | %8
w: Don-|na piu|va- ghi ma-|i, non vi- d'il|ciel de tuoi ce-|le- sti ra-|i,|ne'il mon-|
w: Co-|si Don-|na gen- ti-|le, men- tre'il Ciel|go- de'in te cor-|te- seA- pri-|le,|mi- se-|
 G2 G4 A2 | E4 E4 | F2 FE F2 G2 | C4 D2 F2- | F2 G2 D4 | G4 z4 :| %14
w: do'un sol piu|chia- ro,|vi- de gl'oc- chi tuo-|i, che mi|_ le- ga-|ro.|
w: ro'io so- lo|mo- ro,|e'in tal mo- rir sol|tro- vo'al cor|_ ri- sto-|ro.|

